packages/core/assets/svg/screen/panel/sharpness.svg

<svg xmlns="http://www.w3.org/2000/svg" x="0" y="0" viewBox="0 0 100 80">
  <path d="M50 11c15.24 0 30.17.93 37.63 1.48C88.18 18.43 89 29.06 89 40c0 10.93-.82 21.56-1.37 27.52C80.16 68.07 65.24 69 50 69c-15.14 0-29.97-.92-37.48-1.47C11.96 59.88 11 45.75 11 40s.96-19.88 1.52-27.53C20.03 11.92 34.86 11 50 11m0-6C27.98 5 6.91 6.89 6.91 6.89S5 31.64 5 40s1.91 33.11 1.91 33.11S27.98 75 50 75s43.09-1.89 43.09-1.89S95 57.03 95 40 93.09 6.89 93.09 6.89 72.02 5 50 5z"/>
  <path d="M49 69V10h16L54 69h-5z"/>
</svg>

<svg viewBox="0 0 100 80" fill="none" xmlns="http://www.w3.org/2000/svg">
<path d="M50 11C65.24 11 80.17 11.93 87.63 12.48C88.18 18.43 89 29.06 89 40C89 50.93 88.18 61.56 87.63 67.52C80.16 68.07 65.24 69 50 69C34.86 69 20.03 68.08 12.52 67.53C11.96 59.88 11 45.75 11 40C11 34.25 11.96 20.12 12.52 12.47C20.03 11.92 34.86 11 50 11ZM50 5C27.98 5 6.91 6.89 6.91 6.89C6.91 6.89 5 31.64 5 40C5 48.36 6.91 73.11 6.91 73.11C6.91 73.11 27.98 75 50 75C72.02 75 93.09 73.11 93.09 73.11C93.09 73.11 95 57.03 95 40C95 22.97 93.09 6.89 93.09 6.89C93.09 6.89 72.02 5 50 5Z" fill="black"/>
<path d="M49 69V10H65L54 69H49Z" fill="black"/>
</svg>
